assets/features/channel/southeast-asia1/hong-leong-bank.svg

<svg width="80" height="80" viewBox="0 0 80 80" fill="none" xmlns="http://www.w3.org/2000/svg">
<rect x="0.5" y="0.5" width="79" height="79" rx="7.5" fill="white"/>
<rect x="0.5" y="0.5" width="79" height="79" rx="7.5" stroke="#EEEEEE"/>
<path d="M57.4191 30V34.4917C55.7952 34.3248 54.2167 34.0365 52.6535 33.6419C48.8896 32.6708 45.4443 30.9712 42.3786 28.6343C39.9958 26.8134 37.8861 24.6738 36.1559 22.261L40.1172 20C43.5168 24.5524 48.2825 27.8301 53.8677 29.3172C55.0667 29.6358 56.2505 29.8483 57.4646 30H57.4191ZM50.6956 41.1078C46.0059 39.818 41.6501 37.6784 37.7647 34.7648C34.532 32.3521 31.7394 29.4386 29.478 26.1305L33.3937 23.8695C35.3819 26.6616 37.7192 29.1199 40.4662 31.1685C43.8659 33.7633 47.7057 35.6146 51.8795 36.7527C53.7007 37.2686 55.5523 37.557 57.4495 37.7542V42.2762C55.1881 42.079 52.9722 41.7148 50.6956 41.1078ZM26.7309 27.739C29.1896 31.4568 32.3009 34.6434 35.8676 37.3445C40.0716 40.5463 44.7917 42.8377 49.8913 44.2186C52.3955 44.8559 54.8997 45.296 57.495 45.4629V49.9849C54.5355 49.7877 51.6366 49.3021 48.7226 48.5282C43.0615 47.0411 37.8102 44.4614 33.1205 40.9409C29.0682 37.8756 25.6382 34.2034 22.8 30L26.7309 27.739Z" fill="#001648"/>
<path d="M22.8152 50.0303C25.6381 45.827 29.0833 42.1547 33.1205 39.0894C37.8102 35.5689 43.0615 33.0348 48.7226 31.5022C51.6366 30.7283 54.5506 30.2427 57.495 30.0454V34.5674C54.9148 34.7343 52.4106 35.1744 49.8912 35.8117C44.8069 37.1471 40.0716 39.484 35.8675 42.6403C32.3161 45.3414 29.2048 48.528 26.7309 52.2458L22.8152 50.0303ZM57.4646 37.7541V42.2761C55.5624 42.438 53.7007 42.7617 51.8794 43.2473C47.7209 44.3854 43.8811 46.2367 40.4814 48.8163C37.7343 50.8801 35.397 53.3384 33.4088 56.1305L29.4931 53.8695C31.7545 50.5614 34.5471 47.6479 37.7798 45.22C41.65 42.2761 46.021 40.182 50.7108 38.8922C52.9722 38.2852 55.2032 37.921 57.4646 37.7541ZM57.4646 49.9848C56.2504 50.1517 55.0818 50.349 53.8676 50.6828C48.2824 52.1699 43.5168 55.4324 40.1171 60L36.1559 57.739C37.9013 55.311 39.9957 53.1714 42.3785 51.3657C45.4595 49.0136 48.8895 47.3292 52.6534 46.3581C54.2319 45.9483 55.8103 45.6752 57.4191 45.5083V49.9848H57.4646Z" fill="#EE3124"/>
</svg>

<svg xmlns="http://www.w3.org/2000/svg" width="80" height="80" fill="none" viewBox="0 0 80 80"><rect width="79" height="79" x=".5" y=".5" fill="#fff" rx="7.5"/><rect width="79" height="79" x=".5" y=".5" stroke="#eee" rx="7.5"/><path fill="#001648" d="M57.42 30v4.492a33 33 0 0 1-4.767-.85 28.7 28.7 0 0 1-10.274-5.008c-2.383-1.82-4.493-3.96-6.223-6.373L40.117 20c3.4 4.552 8.166 7.83 13.75 9.317a27 27 0 0 0 3.598.683zm-6.724 11.108a38.5 38.5 0 0 1-12.931-6.343 36.4 36.4 0 0 1-8.287-8.634l3.916-2.262c1.988 2.793 4.325 5.25 7.072 7.3 3.4 2.594 7.24 4.446 11.414 5.584 1.82.516 3.672.804 5.57 1.001v4.522a39 39 0 0 1-6.754-1.168M26.73 27.739c2.459 3.718 5.57 6.904 9.137 9.605 4.204 3.202 8.924 5.494 14.023 6.875 2.505.637 5.009 1.077 7.604 1.244v4.522a46 46 0 0 1-8.772-1.457c-5.661-1.487-10.913-4.067-15.602-7.587C29.068 37.876 25.638 34.203 22.8 30z"/><path fill="#ee3124" d="M22.815 50.03A45.6 45.6 0 0 1 33.12 39.09c4.69-3.521 9.942-6.055 15.603-7.588a46 46 0 0 1 8.772-1.457v4.522c-2.58.167-5.084.607-7.604 1.245-5.084 1.335-9.82 3.672-14.023 6.828-3.552 2.701-6.663 5.888-9.137 9.606zm34.65-12.276v4.522a32 32 0 0 0-5.586.971c-4.158 1.138-7.998 2.99-11.398 5.57-2.747 2.063-5.084 4.521-7.072 7.313l-3.916-2.26a36.8 36.8 0 0 1 8.287-8.65c3.87-2.944 8.241-5.038 12.93-6.328a36 36 0 0 1 6.755-1.138m0 12.23c-1.215.168-2.383.365-3.597.699A25.06 25.06 0 0 0 40.118 60l-3.962-2.261a29.9 29.9 0 0 1 6.223-6.373 28.6 28.6 0 0 1 10.274-5.008 32 32 0 0 1 4.766-.85v4.477z"/></svg>
